X: 11659
T: Eileen O'Callaghan's
R: reel
M: 4/4
K: Gmajor
|:G2BG DGBG|G2Bd cAFD|G2BG DGBG|defd cAFD|
G2BG DGBG|G2Bd cAFD|G3B d2B/d/B|1 defd cAFD:|2 defd cAF2||
|:dggf g2fg|add/e/d add/e/d|dgfg g2fe|defd cAF2|
dggf g2fg|add/e/d add2|dgfg dgfg|1 defd cAF2:|2 defd cAFD||

